!!!OTL: 218. Khosid
!!!Genre:	Khosid
!!!Mode:	Minor
!!!Listening/dance:	dance
!!!One_Mode:	yes
**kern
*thru
*I"P1
*clefG2
*k[b-e-]
*g:
*M2/4
*>A
=1
!LO:TX:a:i:t=G-minor
16gLL
16g
16g
16gJJ
8ccL
8b-J
=2
(32gLLL
32ccJJ)
8.b-J
(8qcc/
16b-LL)
16aJ
8gJ
=3
8ccL
16ddL
16ee-JJ
8ddL
8ccJ
=4
(8qcc/
16b-LL)
16a
16g
16aJJ
4b-
=5
16gLL
16g
16g
16gJJ
(32gLLL
32ccJJ
8.b-J)
=6
(32gLLL
32ccJJ
8.b-J)
(8qcc/
16b-LL)
16aJ
8gJ
=7
8ccL
16ddL
16ee-JJ
8ddL
8ccJ
=8
16b-LL
16cc
16a
16b-JJ
!LO:TX:b:Bi:t=Fine
4g
=9:|!
*>A
=1
!LO:TX:a:i:t=G-minor
16gLL
16g
16g
16gJJ
8ccL
8b-J
=2
(32gLLL
32ccJJ)
8.b-J
(8qcc/
16b-LL)
16aJ
8gJ
=3
8ccL
16ddL
16ee-JJ
8ddL
8ccJ
=4
(8qcc/
16b-LL)
16a
16g
16aJJ
4b-
=5
16gLL
16g
16g
16gJJ
(32gLLL
32ccJJ
8.b-J)
=6
(32gLLL
32ccJJ
8.b-J)
(8qcc/
16b-LL)
16aJ
8gJ
=7
8ccL
16ddL
16ee-JJ
8ddL
8ccJ
=8
16b-LL
16cc
16a
16b-JJ
!LO:TX:b:Bi:t=Fine
4g
=9:|!
!!!Begin-Modulation
*-
